X:101
T:Four Seasons
R:jig 48
M:6/8
L:1/8
Z:C.G.P
K:G
|:d3 BGB|dcB A2D|G2D A2D|dcB A3|
d3 BGB|dcB A2D|!G2D A2D|BcA G3:||
FGF EFG|GFE F2D|FGF EFG|GFE F2A|
FGF EFG|GFE F2D|FGF EFG|GFE D3:||
ABA d3|ABA F3|!ABA GAG|EFG F2D|
ABA d3|ABA F3|ABA GAG|EFE D3:||

